symbols/web/disabled_by_default/materialsymbolsrounded/disabled_by_default_wght700_40px.svg

<svg xmlns="http://www.w3.org/2000/svg" height="40" width="40"><path d="M8.208 31.792h23.584V8.208H8.208Zm0 4.375q-1.833 0-3.104-1.271-1.271-1.271-1.271-3.104V8.208q0-1.833 1.271-3.125 1.271-1.291 3.104-1.291h23.584q1.833 0 3.125 1.291 1.291 1.292 1.291 3.125v23.584q0 1.833-1.291 3.104-1.292 1.271-3.125 1.271Zm4.625-9q.5.5 1.167.5t1.167-.5L20 22.333l4.833 4.834q.5.5 1.167.5t1.167-.5q.5-.5.5-1.167t-.5-1.167L22.333 20l4.834-4.833q.5-.5.5-1.167t-.5-1.167q-.5-.5-1.167-.5t-1.167.5L20 17.667l-4.833-4.834q-.5-.5-1.167-.5t-1.167.5q-.5.5-.5 1.167t.5 1.167L17.667 20l-4.834 4.833q-.5.5-.5 1.167t.5 1.167Zm-4.625 4.625V8.208v23.584Z"/></svg>

<svg xmlns="http://www.w3.org/2000/svg" height="40" width="40"><path d="M8.208 31.792H31.792V8.208H8.208ZM8.208 36.167Q6.375 36.167 5.104 34.896Q3.833 33.625 3.833 31.792V8.208Q3.833 6.375 5.104 5.083Q6.375 3.792 8.208 3.792H31.792Q33.625 3.792 34.917 5.083Q36.208 6.375 36.208 8.208V31.792Q36.208 33.625 34.917 34.896Q33.625 36.167 31.792 36.167ZM12.833 27.167Q13.333 27.667 14 27.667Q14.667 27.667 15.167 27.167L20 22.333L24.833 27.167Q25.333 27.667 26 27.667Q26.667 27.667 27.167 27.167Q27.667 26.667 27.667 26Q27.667 25.333 27.167 24.833L22.333 20L27.167 15.167Q27.667 14.667 27.667 14Q27.667 13.333 27.167 12.833Q26.667 12.333 26 12.333Q25.333 12.333 24.833 12.833L20 17.667L15.167 12.833Q14.667 12.333 14 12.333Q13.333 12.333 12.833 12.833Q12.333 13.333 12.333 14Q12.333 14.667 12.833 15.167L17.667 20L12.833 24.833Q12.333 25.333 12.333 26Q12.333 26.667 12.833 27.167ZM8.208 31.792V8.208V31.792Z"/></svg>
